X:97
T:Paul's Steeple
T:St. Paul's Steeple
M:C|
L:1/4
K:GDor
B>A G A | B3 c/B/ | AFFF | F3 F | GGGA | B c/B/ A G | dddd | d3 c |
BBBc | B2 c B | cccc | c3 b/c/ | ddcB | AG A>c | =B GGG | G4 ||
%
%
